Soft/dist/img/icons/security.svg

<svg width="75" height="75" viewBox="0 0 75 75" fill="none" xmlns="http://www.w3.org/2000/svg">
<rect width="75" height="75" rx="10" fill="url(#paint0_linear_12790_454)"/>
<g clip-path="url(#clip0_12790_454)">
<path d="M37.4989 30.832C33.8216 30.832 30.8301 33.8236 30.8301 37.5005C30.8301 41.1778 33.8216 44.1693 37.4989 44.1693C41.1758 44.1693 44.1674 41.1778 44.1674 37.5005C44.1674 33.8236 41.1758 30.832 37.4989 30.832ZM41.4581 36.2447L36.6807 41.0221C36.4801 41.2227 36.2171 41.3231 35.9544 41.3231C35.6916 41.3231 35.4288 41.2229 35.2283 41.0221L33.4026 39.1964C33.0016 38.7956 33.0016 38.1454 33.4026 37.7443C33.8034 37.3433 34.4537 37.3433 34.8547 37.7443L35.9544 38.844L40.006 34.7926C40.4068 34.3915 41.057 34.3915 41.4581 34.7926C41.8592 35.1934 41.8592 35.8436 41.4581 36.2447Z" fill="white"/>
<path d="M52.3673 29.4964L52.3662 29.4691C52.351 29.133 52.3408 28.7773 52.3347 28.3815C52.3061 26.4517 50.772 24.8554 48.842 24.7476C44.8178 24.523 41.7048 23.2108 39.045 20.6182L39.0223 20.5966C38.1547 19.8011 36.846 19.8011 35.9782 20.5966L35.9555 20.6182C33.2956 23.2108 30.1826 24.523 26.1585 24.7478C24.2287 24.8554 22.6943 26.4517 22.6657 28.3818C22.6599 28.7749 22.6494 29.1306 22.6342 29.4691L22.6326 29.5324C22.5544 33.6359 22.4572 38.7428 24.1656 43.3781C25.105 45.9272 26.5278 48.143 28.394 49.9644C30.5196 52.0386 33.3036 53.6854 36.6687 54.8587C36.7782 54.8969 36.8919 54.9279 37.0078 54.9511C37.1712 54.9837 37.3357 55 37.5002 55C37.6647 55 37.8295 54.9837 37.9926 54.9511C38.1085 54.9279 38.2231 54.8966 38.3331 54.8582C41.6942 53.6827 44.4753 52.0352 46.5989 49.9612C48.4644 48.1392 49.8871 45.9229 50.8273 43.3733C52.5422 38.7241 52.4452 33.6076 52.3673 29.4964ZM37.4997 46.223C32.69 46.223 28.7772 42.3103 28.7772 37.5006C28.7772 32.6908 32.69 28.7781 37.4997 28.7781C42.3091 28.7781 46.2221 32.6908 46.2221 37.5006C46.2221 42.3103 42.3091 46.223 37.4997 46.223Z" fill="white"/>
</g>
<defs>
<linearGradient id="paint0_linear_12790_454" x1="15.5" y1="1.20749e-07" x2="37.5" y2="75" gradientUnits="userSpaceOnUse">
<stop stop-color="#FCD876"/>
<stop offset="1" stop-color="#FABC13"/>
</linearGradient>
<clipPath id="clip0_12790_454">
<rect width="35" height="35" fill="white" transform="translate(20 20)"/>
</clipPath>
</defs>
</svg>

<svg width="75" height="75" fill="none" xmlns="http://www.w3.org/2000/svg"><rect width="75" height="75" rx="10" fill="url(#paint0_linear_12790_454)"/><g clip-path="url(#clip0_12790_454)" fill="#fff"><path d="M37.499 30.832a6.676 6.676 0 00-6.669 6.669 6.676 6.676 0 006.669 6.668 6.676 6.676 0 006.668-6.668 6.676 6.676 0 00-6.668-6.669zm3.96 5.413l-4.778 4.777a1.024 1.024 0 01-1.453 0l-1.825-1.826a1.027 1.027 0 111.452-1.452l1.1 1.1 4.051-4.051a1.027 1.027 0 111.452 1.452z"/><path d="M52.367 29.496v-.027a36.397 36.397 0 01-.032-1.088 3.71 3.71 0 00-3.493-3.633c-4.024-.225-7.137-1.537-9.797-4.13l-.023-.021a2.24 2.24 0 00-3.044 0l-.023.021c-2.66 2.593-5.772 3.905-9.796 4.13a3.71 3.71 0 00-3.493 3.634c-.006.393-.017.749-.032 1.087l-.001.063c-.079 4.104-.176 9.21 1.533 13.846.939 2.55 2.362 4.765 4.228 6.586 2.126 2.075 4.91 3.721 8.275 4.895A2.552 2.552 0 0037.5 55a2.511 2.511 0 00.833-.142c3.361-1.175 6.142-2.823 8.266-4.897 1.865-1.822 3.288-4.038 4.228-6.588 1.715-4.649 1.618-9.765 1.54-13.877zM37.5 46.223c-4.81 0-8.723-3.913-8.723-8.722 0-4.81 3.913-8.723 8.723-8.723 4.81 0 8.722 3.913 8.722 8.723 0 4.81-3.913 8.722-8.722 8.722z"/></g><defs><linearGradient id="paint0_linear_12790_454" x1="15.5" y1="0" x2="37.5" y2="75" gradientUnits="userSpaceOnUse"><stop stop-color="#FCD876"/><stop offset="1" stop-color="#FABC13"/></linearGradient><clipPath id="clip0_12790_454"><path fill="#fff" transform="translate(20 20)" d="M0 0h35v35H0z"/></clipPath></defs></svg>
